static/mask-icon.svg

<svg height="16" viewBox="0 0 16 16" width="16" xmlns="http://www.w3.org/2000/svg"><path d="m8.36074848 3.60786438c-.02978674.17227102-.17996578.30330086-.36074848.30330086s-.33096174-.13102984-.36074848-.30330086h-.00531768c-.14241448-.37757292-.3655704-.73163656-.66946775-1.03553391-1.14381916-1.14381917-2.99831645-1.14381917-4.14213562 0s-1.14381917 2.99831646 0 4.14213562l5.17766953 5.17766951 5.1776695-5.17766951c1.1438192-1.14381916 1.1438192-2.99831645 0-4.14213562-1.1438191-1.14381917-2.9983164-1.14381917-4.14213559 0-.30389735.30389735-.52705327.65796099-.66946775 1.03553391zm5.85245492 4.14213562-6.2132034 6.2132034-6.21320344-6.2132034c-1.71572875-1.71572875-1.71572875-4.49747468 0-6.21320344 1.71572876-1.71572875 4.49747469-1.71572875 6.21320344 0 1.71572875-1.71572875 4.4974747-1.71572875 6.2132034 0 1.7157288 1.71572876 1.7157288 4.49747469 0 6.21320344z"/></svg>

<?xml version="1.0" encoding="UTF-8"?>
<svg width="16px" height="16px" viewBox="0 0 16 16" version="1.1" xmlns="http://www.w3.org/2000/svg" xmlns:xlink="http://www.w3.org/1999/xlink">
  <path d="M8.36074848,3.60786438 C8.33096174,3.7801354 8.1807827,3.91116524 8,3.91116524 C7.8192173,3.91116524 7.66903826,3.7801354 7.63925152,3.60786438 L7.63393384,3.60786438 C7.49151936,3.23029146 7.26836344,2.87622782 6.96446609,2.57233047 C5.82064693,1.4285113 3.96614964,1.4285113 2.82233047,2.57233047 C1.6785113,3.71614964 1.6785113,5.57064693 2.82233047,6.71446609 L8,11.8921356 L13.1776695,6.71446609 C14.3214887,5.57064693 14.3214887,3.71614964 13.1776695,2.57233047 C12.0338504,1.4285113 10.1793531,1.4285113 9.03553391,2.57233047 C8.73163656,2.87622782 8.50848064,3.23029146 8.36606616,3.60786438 L8.36074848,3.60786438 L8.36074848,3.60786438 Z M14.2132034,7.75 L8,13.9632034 L1.78679656,7.75 C0.0710678119,6.03427125 0.0710678119,3.25252532 1.78679656,1.53679656 C3.50252532,-0.178932188 6.28427125,-0.178932188 8,1.53679656 C9.71572875,-0.178932188 12.4974747,-0.178932188 14.2132034,1.53679656 C15.9289322,3.25252532 15.9289322,6.03427125 14.2132034,7.75 Z"></path>
</svg>
